!!!COM: Bach, Johann Sebastian
!!!OPR: Joh. Seb. Bachs vierstimmige Choralgesänge
!!!XEN: Four-part Chorales
!!!OTL: Chorale 168. Warum betrübst du dich, mein Herz
!!!SCT: BWV 421
!!!SCA: Thematisch-systematisches Verzeichnis der musikalischen Werke Johann Sebastian Bach: Bach-Werke-Verzeichnis (Schmieder)
!!!YOR: Bach Gesellschaft Edition xxxix
!!!ENC: Steven Rasmussen
!!!CDT: 1685/3//-1750/7/28/
!!!OCY: Deutschland
!!!YEC: Copyright (c) 1994, 2000 Center for Computer Assisted Research in the Humanities
!!!YEM: Rights to all derivative editions reserved
!!!YEN: United States of America
**kern	**kern	**kern	**kern	**silbe
*I:[BASSO]	*I:[TENORE]	*I:[ALTO]	*I:[SOPRANO]	*I:[SOPRANO]
*clefF4	*clefGv2	*clefG2	*clefG2	*
*k[]	*k[]	*k[]	*k[]	*
*a:	*a:	*a:	*a:	*
*M4/4	*M4/4	*M4/4	*M4/4	*
8AAL	8cL	4e	4a	Wa-
8BBJ	8dJ	.	.	.
=1	=1	=1	=1	=1
4C	4e	4.e	8aL	-rum
.	.	.	8bJ	.
4AA	4A	.	4cc	be-
.	.	8a	.	.
4E	4B	8aL	4b	-trÃ¼bst
.	.	8g#J	.	.
4C#	4B-	4gn	4ee	du
=2	=2	=2	=2	=2
4D	4A	4f	4dd	dich,
4D#	4A	4f#	4cc	mein
4E;	4G#;	4B;	4b;	Herz,
4AA	4A	4e	8ccL	be-
.	.	.	8bJ	.
=3	=3	=3	=3	=3
4D	4A	4f	4a	-kÃ¼m-
4C	4c	4g	4ee	-merst
4G	8cL	4g	4dd	dich
.	16BL	.	.	.
.	16AJJ	.	.	.
4E	8BL	4g	4ee	und
.	8c#J	.	.	.
=4	=4	=4	=4	=4
8FL	4d	4f	8aL	trÃ¤-
8GJ	.	.	8bJ	.
4A	4A	4e	4cc#	-gest
4D;	4A;	4f;	4dd;	Schmerz
4AA	4A	4e	4ccn	nur
=5	=5	=5	=5	=5
4E	4G#	4e	4b	um
4C	4A	8eL	4ee	das
.	.	8f#J	.	.
4BB	4B	4g#	4dd	zeit-
4AA	8cL	4a	4cc	-lich'
.	8dJ	.	.	.
=6	=6	=6	=6	=6
2.E;	2.e;	2.g#;	2.b;	Gut?
8cL	8eL	8aL	8aL	Ver-
8BJ	8dJ	8g#J	8bJ	.
=7	=7	=7	=7	=7
8AL	4c	4a	4cc	-trau'
8GJ	.	.	.	.
4F	4e-	8aL	4cc	du
.	.	8gJ	.	.
8B-L	4d	4f	4dd	dei-
8AJ	.	.	.	.
4G	4g	4b-	4dd	-nem
=8	=8	=8	=8	=8
4c	4g	4b-	4ee	Her-
4C	8fL	8aL	4ee	-ren
.	8eJ	8gJ	.	.
4F;	4f;	4a;	4cc;	Gott,
4C	4g	4cc	4ee	der
=9	=9	=9	=9	=9
4G	8gL	4b	4dd	al-
.	8fJ	.	.	.
4A	4e	8aL	4cc	-le
.	.	8gJ	.	.
8DL	4d	8f#L	4b	Ding'
8EJ	.	8g#J	.	.
4F	8cL	4a	8aL	er-
.	8dJ	.	8bJ	.
=10	=10	=10	=10	=10
8CL	4e	4a	4cc	-schaf-
8DJ	.	.	.	.
4E	8eL	4g#	4b	-fen
.	8dJ	.	.	.
4AA;	4c#;	4e;	4a;	hat.
==|!	==|!	==|!	==|!	==|!
*-	*-	*-	*-	*-
!!!RWG: Key is interpreted using the Humdrum key tool.
!!!URL-pdf: https://s9.imslp.org/files/imglnks/usimg/6/6b/IMSLP24489-PMLP09471-CCARH_Bach_Chorales.pdf#page=116 Musedata edition
!!!URL-pdf: https://s9.imslp.org/files/imglnks/usimg/7/7a/IMSLP04155-Bach_-_BGA_253-438.pdf#page=92 	Bach-Gesellschaft Ausgabe, Band 39 (pp.175-276) Leipzig: Breitkopf und Härtel, 1892. Plate B.W. XXXIX.
!!!END: 1994/08/03
!!!EMD: Converted from MuseData to Humdrum Dec 19, 2000, by Andreas Kornstaedt using muse2kern.
!!!EED: Craig Stuart Sapp
!!!EEV: 2024/03/31
!!!filter-keyboard: satb2gs
!!!title: @{OTL} (@{SCT})
